austria/municipalities/61033.svg

<?xml version="1.0" encoding="UTF-8" standalone="no"?>
<!-- Created with Inkscape (http://www.inkscape.org/) -->

<svg
   xml:space="preserve"
   id="svg11947"
   version="1.1"
   viewBox="0 0 31.75 38.1"
   width="120"
   height="144"
   sodipodi:docname="AUT_Sankt_Nikolai_im_Sausal_COA.svg"
   inkscape:version="1.2 (dc2aeda, 2022-05-15)"
   xmlns:inkscape="http://www.inkscape.org/namespaces/inkscape"
   xmlns:sodipodi="http://sodipodi.sourceforge.net/DTD/sodipodi-0.dtd"
   xmlns="http://www.w3.org/2000/svg"
   xmlns:svg="http://www.w3.org/2000/svg"><sodipodi:namedview
     id="namedview198"
     pagecolor="#ffffff"
     bordercolor="#000000"
     borderopacity="0.25"
     inkscape:showpageshadow="2"
     inkscape:pageopacity="0.0"
     inkscape:pagecheckerboard="0"
     inkscape:deskcolor="#d1d1d1"
     inkscape:document-units="px"
     showgrid="false"
     inkscape:zoom="1.9991732"
     inkscape:cx="26.51096"
     inkscape:cy="30.262511"
     inkscape:window-width="1390"
     inkscape:window-height="1205"
     inkscape:window-x="2240"
     inkscape:window-y="25"
     inkscape:window-maximized="0"
     inkscape:current-layer="svg11947" /><defs
     id="defs11944"><linearGradient
       id="s_Salbe_Schwarz"
       inkscape:swatch="solid"><stop
         style="stop-color:#000000;stop-opacity:1;"
         offset="0"
         id="stop3747" /></linearGradient><linearGradient
       id="a_Argent_Silber"
       inkscape:swatch="solid"><stop
         style="stop-color:#ffffff;stop-opacity:1;"
         offset="0"
         id="stop3741" /></linearGradient><linearGradient
       id="A_Argent-dark_Silber-dunkel"
       inkscape:swatch="solid"><stop
         style="stop-color:#e7e7e7;stop-opacity:1;"
         offset="0"
         id="stop3735" /></linearGradient><linearGradient
       id="g_Gules_Rot"
       inkscape:swatch="solid"><stop
         style="stop-color:#da121a;stop-opacity:1;"
         offset="0"
         id="stop3729" /></linearGradient><linearGradient
       id="o_Or_Gold"
       inkscape:swatch="solid"><stop
         style="stop-color:#fcdd09;stop-opacity:1;"
         offset="0"
         id="stop3723" /></linearGradient><linearGradient
       id="b_Azure_Blau"
       inkscape:swatch="solid"><stop
         style="stop-color:#0f47af;stop-opacity:1;"
         offset="0"
         id="stop3717" /></linearGradient><linearGradient
       id="B_Bleu-celeste_Hellblau"
       inkscape:swatch="solid"><stop
         style="stop-color:#4d87ca;stop-opacity:1;"
         offset="0"
         id="stop3711" /></linearGradient><linearGradient
       id="B_Bleu-celeste-alt_Hellblau-alt"
       inkscape:swatch="solid"><stop
         style="stop-color:#89c5e3;stop-opacity:1;"
         offset="0"
         id="stop3705" /></linearGradient><linearGradient
       id="v_Vert_Gruen"
       inkscape:swatch="solid"><stop
         style="stop-color:#078930;stop-opacity:1;"
         offset="0"
         id="stop3699" /></linearGradient><linearGradient
       id="c_Carnation_Fleischfarbe"
       inkscape:swatch="solid"><stop
         style="stop-color:#f2a772;stop-opacity:1;"
         offset="0"
         id="stop3693" /></linearGradient><linearGradient
       id="p_Purpure_Purpur"
       inkscape:swatch="solid"><stop
         style="stop-color:#9116a1;stop-opacity:1;"
         offset="0"
         id="stop3687" /></linearGradient><linearGradient
       id="t_Tenne_Braun"
       inkscape:swatch="solid"><stop
         style="stop-color:#9d5333;stop-opacity:1;"
         offset="0"
         id="stop3681" /></linearGradient><linearGradient
       id="C_Cendre_Eisen"
       inkscape:swatch="solid"><stop
         style="stop-color:#999999;stop-opacity:1;"
         offset="0"
         id="stop3675" /></linearGradient><linearGradient
       id="Murray_Maulbeere"
       inkscape:swatch="solid"><stop
         style="stop-color:#630727;stop-opacity:1;"
         offset="0"
         id="stop3669" /></linearGradient><linearGradient
       id="Rose_Rosa"
       inkscape:swatch="solid"><stop
         style="stop-color:#e63d6a;stop-opacity:1;"
         offset="0"
         id="stop2937" /></linearGradient><linearGradient
       id="Orange_Orange"
       inkscape:swatch="solid"><stop
         style="stop-color:#ed5f00;stop-opacity:1;"
         offset="0"
         id="stop2931" /></linearGradient><linearGradient
       id="Buff_Leder"
       inkscape:swatch="solid"><stop
         style="stop-color:#ddc595;stop-opacity:1;"
         offset="0"
         id="stop2925" /></linearGradient><linearGradient
       id="Copper_Kupfer"
       inkscape:swatch="solid"><stop
         style="stop-color:#953d02;stop-opacity:1;"
         offset="0"
         id="stop1435" /></linearGradient></defs><g
     inkscape:groupmode="layer"
     id="layer1"
     inkscape:label="Wappen"><path
       d="M 2e-7,3.1e-6 V 22.225003 c 0,8.767498 7.107502,15.875 15.8749998,15.875 8.767498,0 15.875,-7.107502 15.875,-15.875 V 3.1e-6 Z"
       id="path11658"
       style="stroke-width:0.264583;opacity:1"
       inkscape:label="Schildrand"
       sodipodi:nodetypes="cssscc" /><path
       id="path3206"
       style="fill:#0f47af;fill-opacity:1;stroke-width:0.529167;stroke-dasharray:none;opacity:1;stroke-linejoin:miter"
       inkscape:label="Schild"
       d="M 23.547917 0.52916667 L 23.547917 35.516695 C 28.134486 32.863159 31.220833 27.904612 31.220833 22.225 L 31.220833 19.314583 L 31.220833 0.52916667 L 23.547917 0.52916667 z " /><path
       id="path3401"
       style="fill:#ffffff;fill-opacity:1;stroke-width:0.529167;stroke-dasharray:none;opacity:1;stroke-linejoin:miter"
       inkscape:label="Schild"
       d="M 15.875 0.52916667 L 15.875 37.570833 C 18.670232 37.570833 21.290628 36.822638 23.547917 35.516695 L 23.547917 0.52916667 L 15.875 0.52916667 z " /><path
       style="opacity:1;fill:none;stroke:#000000;stroke-width:0.264583;stroke-linecap:butt;stroke-linejoin:miter;paint-order:fill markers stroke"
       d="M 31.220833,16.933334 H 15.875"
       id="path3266" /><path
       style="opacity:1;fill:none;stroke:#000000;stroke-width:0.264583;stroke-linecap:butt;stroke-linejoin:miter;paint-order:fill markers stroke"
       d="m 23.547919,35.786555 -2e-6,-35.25738832"
       id="path3322"
       sodipodi:nodetypes="cc" /><path
       style="opacity:1;fill:#0f47af;stroke:#000000;stroke-width:0.264583;stroke-linecap:butt;stroke-linejoin:miter;paint-order:fill markers stroke"
       d="M 19.711458,0.52916666 15.875,16.933334 h 7.672918 z"
       id="path3326" /><path
       style="opacity:1;fill:#0f47af;stroke:#000000;stroke-width:0.264583;stroke-linecap:butt;stroke-linejoin:miter;paint-order:fill markers stroke"
       d="M 23.547918,16.933334 H 15.875 l 3.836458,20.153975 z"
       id="path3384"
       sodipodi:nodetypes="cccc" /><path
       style="opacity:1;fill:#ffffff;stroke:#000000;stroke-width:0.264583;stroke-linecap:butt;stroke-linejoin:miter;paint-order:fill markers stroke"
       d="M 23.547918,16.933334 27.384375,0.52916666 31.220833,16.933334 Z"
       id="path3386" /><path
       style="opacity:1;fill:#ffffff;stroke:#000000;stroke-width:0.264583;stroke-linecap:butt;stroke-linejoin:miter;paint-order:fill markers stroke"
       d="m 23.547918,16.933334 3.836457,15.441932 3.836458,-15.441932 z"
       id="path3390" /><path
       style="opacity:1;fill:#ffffff;stroke:#000000;stroke-width:0.264583;stroke-linecap:butt;stroke-linejoin:miter;paint-order:fill markers stroke"
       d="M 27.384375,0.52916669 V 32.663776"
       id="path3388" /><path
       id="rect11660"
       style="fill:#da121a;fill-opacity:1;stroke-width:0.529167;stroke-dasharray:none"
       inkscape:label="Schild"
       d="M 0.52916667,0.52916667 V 19.314583 22.225 c 0,8.474853 6.87098163,15.345833 15.34583333,15.345833 V 0.52916667 Z" /><g
       id="g3482"
       transform="translate(0,0.43776088)"><circle
         style="fill:#fcdd09;stroke:#000000;stroke-width:0.264583;stroke-linecap:butt;stroke-linejoin:miter;paint-order:fill markers stroke"
         id="path3463"
         cx="8.2020836"
         cy="14.117057"
         r="2.8162773" /><circle
         style="fill:#fcdd09;stroke:#000000;stroke-width:0.264583;stroke-linecap:butt;stroke-linejoin:miter;paint-order:fill markers stroke"
         id="circle3465"
         cx="5.3858061"
         cy="19.049999"
         r="2.8162773" /><circle
         style="fill:#fcdd09;stroke:#000000;stroke-width:0.264583;stroke-linecap:butt;stroke-linejoin:miter;paint-order:fill markers stroke"
         id="circle3467"
         cx="11.01836"
         cy="19.049999"
         r="2.8162773" /></g><path
       style="opacity:1;fill:none;stroke:#000000;stroke-width:0.264583;stroke-linecap:butt;stroke-linejoin:miter;paint-order:fill markers stroke"
       d="M 15.875,37.570833 V 0.52916666"
       id="path3324"
       sodipodi:nodetypes="cc" /><path
       style="opacity:1;fill:#fcdd09;stroke:#000000;stroke-width:0.264583;stroke-linecap:butt;stroke-linejoin:miter;paint-order:fill markers stroke"
       d="m 19.711389,37.333643 6.9e-5,-36.80447636"
       id="path3484" /></g></svg>

<svg xml:space="preserve" viewBox="0 0 31.75 38.1" width="120" height="144" xmlns="http://www.w3.org/2000/svg"><path d="M0 0v22.225C0 30.993 7.108 38.1 15.875 38.1S31.75 30.993 31.75 22.225V0z" style="stroke-width:.264583;opacity:1"/><path style="fill:#0f47af;fill-opacity:1;stroke-width:.529167;stroke-dasharray:none;opacity:1;stroke-linejoin:miter" d="M23.548.53v34.987c4.586-2.654 7.673-7.612 7.673-13.292V.529h-7.673z"/><path style="fill:#fff;fill-opacity:1;stroke-width:.529167;stroke-dasharray:none;opacity:1;stroke-linejoin:miter" d="M15.875.53v37.04c2.795 0 5.416-.747 7.673-2.053V.529h-7.673z"/><path style="opacity:1;fill:none;stroke:#000;stroke-width:.264583;stroke-linecap:butt;stroke-linejoin:miter;paint-order:fill markers stroke" d="M31.22 16.933H15.876M23.548 35.787V.529"/><path style="opacity:1;fill:#0f47af;stroke:#000;stroke-width:.264583;stroke-linecap:butt;stroke-linejoin:miter;paint-order:fill markers stroke" d="m19.711.53-3.836 16.403h7.673zM23.548 16.933h-7.673l3.836 20.154z"/><path style="opacity:1;fill:#fff;stroke:#000;stroke-width:.264583;stroke-linecap:butt;stroke-linejoin:miter;paint-order:fill markers stroke" d="M23.548 16.933 27.384.53l3.837 16.404z"/><path style="opacity:1;fill:#fff;stroke:#000;stroke-width:.264583;stroke-linecap:butt;stroke-linejoin:miter;paint-order:fill markers stroke" d="m23.548 16.933 3.836 15.442 3.837-15.442zM27.384.53v32.134"/><path style="fill:#da121a;fill-opacity:1;stroke-width:.529167;stroke-dasharray:none" d="M.53.53v21.695c0 8.475 6.87 15.346 15.345 15.346V.529z"/><g transform="translate(0 .438)"><circle style="fill:#fcdd09;stroke:#000;stroke-width:.264583;stroke-linecap:butt;stroke-linejoin:miter;paint-order:fill markers stroke" cx="8.202" cy="14.117" r="2.816"/><circle style="fill:#fcdd09;stroke:#000;stroke-width:.264583;stroke-linecap:butt;stroke-linejoin:miter;paint-order:fill markers stroke" cx="5.386" cy="19.05" r="2.816"/><circle style="fill:#fcdd09;stroke:#000;stroke-width:.264583;stroke-linecap:butt;stroke-linejoin:miter;paint-order:fill markers stroke" cx="11.018" cy="19.05" r="2.816"/></g><path style="opacity:1;fill:none;stroke:#000;stroke-width:.264583;stroke-linecap:butt;stroke-linejoin:miter;paint-order:fill markers stroke" d="M15.875 37.57V.53"/><path style="opacity:1;fill:#fcdd09;stroke:#000;stroke-width:.264583;stroke-linecap:butt;stroke-linejoin:miter;paint-order:fill markers stroke" d="M19.711 37.334V.529"/></svg>
